**kern	**kern	**dynam
*part1	*part1	*part1
*staff2	*staff1	*staff1
*IPiano	*IPiano	*IPiano
*clefF4	*clefF4	*clefF4
*k[f#]	*k[f#]	*k[f#]
*M2/4	*M2/4	*M2/4
=1	=1	=1
!Tempo Marking: Modere ( Nerveux et avec humour)	!Tempo Marking: Modere ( Nerveux et avec humour)	!Tempo Marking: Modere ( Nerveux et avec humour)
!Expression: les grappetti sur le temps	!	!
8GGG' 8GG	8r	.
.	(<16qqB/LL	p
.	16qqA/	.
!	!	!
.	16qqG/JJ	.
8r	16D'LL)	.
.	16E'JJ	.
.	(<16qqd/LL	.
.	16qqc/	.
.	16qqB-/JJ	.
8r	8F#'~^)	.
8DD' 8D	8r	.
=2	=2	=2
8GGG' 8GG	8r	.
.	(<16qqBn/LL	<
.	16qqA/	.
.	16qqG/JJ)	.
8r	16D'LL	.
.	16E'JJ	.
.	(<16qqd/LL	[
.	16qqc/	.
.	16qqB-/JJ	.
8r	16F#'LL)	.
.	16F#'J	.
8DD' 8D	8F#'J	.
=3	=3	=3
8GGG' 8GG	8r	p
.	(<16qqB/LL	<
.	16qqA/	.
.	16qqG/JJ	.
8r	16D'LL)	.
.	16E'JJ	.
.	(<16qqd/LL	.
.	16qqc/	.
.	16qqB-/JJ	.
8r	16F#'LL)	.
.	16F#'	[
8DD'	16F#'	>
.	16E'JJ	.
=4	=4	=4
.	(<16qqB/LL	]pp
.	16qqA/	.
.	16qqG/JJ	.
4ryy	16D'LL)	.
.	16D'	.
.	16D'	.
!Tempo Marking: Cedez	!Tempo Marking: Cedez	!Tempo Marking: Cedez
.	16BBB' 16BBJJ	>
8AAA' 8AALL	4ryy	.
8DDD' 8DDJJ	.	.
=5	=5	=5
!Tempo Marking: Mouvt	!Tempo Marking: Mouvt	!Tempo Marking: Mouvt
8GGG' 8GG	8r	]p
.	(<16qqB/LL	.
.	16qqA/	.
.	16qqG/JJ	.
8r	16D'LL)	.
.	16E'JJ	.
.	(<16qqd/LL	.
.	16qqc/	.
.	16qqB-/JJ	.
8r	8F#'~^)	.
8DD' 8D	8r	.
=6	=6	=6
8GGG' 8GG	8r	.
.	(<16qqBn/LL	<
.	16qqA/	.
.	16qqG/JJ)	.
8r	16D'LL	.
.	16E'JJ	.
.	(<16qqd/LL	.
.	16qqc/	.
.	16qqB-X/JJ	.
8r	16F#'LL)	.
.	16F#'J	.
8DD' 8D	8F#'J	[
=7	=7	=7
8GGG' 8GG	8r	p
.	(<16qqB/LL	<
.	16qqA/	.
.	16qqG/JJ	.
8r	16D'LL)	.
.	16E'JJ	.
.	(<16qqd/LL	.
.	16qqc/	.
.	16qqB-X/JJ	.
8r	16F#'LL)	[
.	16F#'	.
8DD'	16F#'	>
.	16E'JJ	.
=8	=8	=8
.	(<16qqB/LL	]pp
.	16qqA/	.
.	16qqG/JJ	.
4ryy	16D'LL)	.
.	16D'	.
.	16D'	.
!Tempo Marking: Cedez	!Tempo Marking: Cedez	!Tempo Marking: Cedez
.	16BBB' 16BBJJ	>
8AAA' 8AALL	4ryy	.
8DDD' 8DDJJ	.	.
*	*clefG2	*
=9	=9	=9
!Tempo Marking: Mouvt (Un peu plus allant)	!Tempo Marking: Mouvt (Un peu plus allant)	!Tempo Marking: Mouvt (Un peu plus allant)
8GGG' 8GG	8r	]p
!	!Expression: (tres detache)	!
8ryy	16DLL 16E	.
.	16AJJ 16B	.
4ryy	16dLL 16e	.
.	16A 16B	.
.	16DLL 16E	.
.	16AJJ 16B	.
=10	=10	=10
4ryy	16dLL 16e	.
.	16A 16B	.
.	16D 16E	.
.	16AJJ 16B	.
8ryy	(<8d 8e	.
(<8DDD 8DD	[8B~) [8d [8e [8g	>
=11	=11	=11
8GGG) 8GG	16BLL] 16d] 16e] 16g]	.
.	16e	]
8r	16d	.
.	16eJJ	.
4r	16gLL	.
.	16e	.
.	16d	.
.	16BJJ	.
*	*clefF4	*
=12	=12	=12
4r	16GLL	.
.	16E	.
.	16D	.
.	16EJJ	.
8r	8G	.
(<8CC~ 8GG	8C~ 8E	.
*	*clefG2	*
=13	=13	=13
*	*^	*
8AAA) 8AA	8r	8ryy	.
8r	16ALL	(<4G 4A	.
.	16dJJ 16f#	.	.
8r	8c'L) 8e	.	.
(<8CC 8C	[8eJ [8g	[8G [8A	.
=14	=14	=14	=14
8AAA) 8AA	16eLL] 16g]	4G] 4A]	>
.	16d 16f#	.	.
8r	16c 16e	.	.
.	16BJJ 16d	.	.
8r	8c'L 8e	4ryy	]
8CC' 8C	8G'J 8A 8d 8f#	.	pp
*	*v	*v	*
=15	=15	=15
8AAA'L 8AA	8G'L 8A 8c 8e	.
8CC' 8C	8G' 8A 8d 8f#	.
8AAA' 8AA	8G' 8A 8c 8e	.
8CC'J 8C	8G'J 8A 8d 8f#	.
=16	=16	=16
8AAA' 8AA	8G' 8A 8c 8e	.
8r	16d'LL	<
.	16e'JJ	.
8r	[4f#^^	[f
8c#'^^ 8e#	.	.
=17	=17	=17
8c'^^ 8e	16f#LL]	.
.	16f#'	.
8r	16f#'	.
.	16g'JJ	.
8r	16f#'LL	.
.	16f#'	.
8B'^^ 8d	16f#'	.
.	16a#'JJ	.
=18	=18	=18
8F#'^^ 8c#	8f#	.
8C#'^^L	8G#'^^L 8c# 8e# 8g#	f<
8FFF#'^^ 8FF#	8A#'^^ 8c# 8f# 8a#	.
8DDD'^^J 8DD	8cn'^^J 8d 8f# 8an 8dd	.
=19	=19	=19
8GGG' 8GG	8ryy	[p
8ryy	16D'LL 16E	.
.	16A'JJ 16B	.
4ryy	16d'LL 16e	.
.	16A' 16B	.
.	16D' 16E	.
.	16A'JJ 16B	.
=20	=20	=20
4ryy	16d'LL 16e	.
.	16A' 16B	.
.	16D' 16E	.
.	16A'JJ 16B	.
8ryy	8d'L 8e	.
(<8DDD 8DD	[8B~J [8d [8e [8g	>
=21	=21	=21
8GGG) 8GG	16BLL] 16d] 16e] 16g]	.
.	16e'	]
8r	16d'	.
.	16e'JJ	.
4r	16g'LL	.
.	16e'	.
.	16d'	.
.	16B'JJ	.
=22	=22	=22
*	*clefF4	*
4r	(>16GLL	.
.	16E	.
.	16D	.
.	16EJJ	.
8r	8G')	.
(<8CC~ 8GG	8C~ 8E	.
=23	=23	=23
*	*^	*
8AAA') 8AA	8r	8ryy	.
*	*clefG2	*	*
8r	16ALL	(<4G 4A	.
.	16dJ 16f#	.	.
8r	8c') 8e	.	.
(<8CC~ 8C	[8e~J [8g	[8G [8A	.
=24	=24	=24	=24
8AAA') 8AA	16eLL] 16g]	4G] 4A]	.
.	(>16d 16f#	.	>
8r	16c 16e	.	.
.	16BJ 16d	.	.
8r	8c'J) 8e	4ryy	.
8CC' 8C	8G' 8A 8d 8f#	.	]pp
*	*v	*v	*
=25	=25	=25
8AAA'L 8AA	8G'L 8A 8c 8e	.
8CC' 8C	8G' 8A 8d 8f#	.
8AAA' 8AA	8G' 8A 8c 8e	.
8CC'J 8C	8G'J 8A 8d 8f#	.
=26	=26	=26
8AAA' 8AA	8G' 8A 8c 8e	.
8r	16g-'LL	<
.	16a-'JJ	.
8r	[4b-^^	[f
8d' 8fn	.	.
=27	=27	=27
8c'L 8e-	16b-LL]	<
.	16g	.
8B-' 8d	16e-	.
.	16fnJJ	.
8A-' 8c	16gLL	.
.	16b-	.
8G'J 8B-	16cc	.
.	16ee-JJ	.
=28	=28	=28
*^	*^	*
8r	4FFn~ 4Fn	16d'LL 16a- 16dd	8ryy	[mf
.	.	16d' 16a- 16dd	.	.
8A-'	.	(>16d 16dd	8a-	.
.	.	16e-JJ) 16ee-	.	.
8r	4EE-~ 4E-	16c'LL 16a- 16cc	8ryy	.
.	.	16c' 16a- 16cc	.	.
8A-'	.	(>16c 16cc	8a-	.
.	.	16dJJ) 16dd	.	.
=29	=29	=29	=29	=29
8r	4DD~ 4D	16B-'LL 16b-	8ryy	.
.	.	16B-' 16b-	.	.
8A-'	.	(>16B- 16b-	8a	.
.	.	16dJJ) 16dd	.	.
8r	4EE-~ 4E-	(>8cL 8cc	4a	f<
8A-'	.	8g'J) 8gg	.	.
=30	=30	=30	=30	=30
8r	4FFn~ 4Fn	16d'LL 16a- 16dd	8ryy	[mf
.	.	16d' 16a- 16dd	.	.
8A-'	.	(>16d 16dd	8a-	.
.	.	16e-JJ) 16ee-	.	.
8r	4EE-~ 4E-	16c'LL 16a- 16cc	8ryy	.
.	.	16c' 16a- 16cc	.	.
8A-'	.	(>16c 16cc	8a-	.
.	.	16dJJ) 16dd	.	.
=31	=31	=31	=31	=31
8r	4DD~ 4D	16B-'LL 16b-	8ryy	.
.	.	16B-' 16b-	.	.
8A-'	.	(>16B- 16b-	8a	.
.	.	16dJJ) 16dd	.	.
8r	4EE-~ 4E-	(>8cL 8cc	4a	f<
8A-'	.	8ccJ) 8ccc	.	.
*v	*v	*	*	*
*	*v	*v	*
=32	=32	=32
2r	8r	[
.	(<16dLL	f<
.	16eJJ	.
.	16gLL)	[
.	16e'	.
.	16d'	.
.	16B'JJ	.
*	*clefF4	*
=33	=33	=33
4r	16G'LL	>
.	16E'	.
.	16D'	.
.	16E'JJ	]
8r	8G'L	.
8CC'~ 8GG	8C'~J 8E	sf
=34	=34	=34
(<16GGLL	2r	p>
16EE	.	.
16DD	.	.
16EEJJ	.	.
8GG'L)	.	.
*8ba	*	*
8EEE'J	.	]pp
=35	=35	=35
!Tempo Marking: En cedant	!Tempo Marking: En cedant	!Tempo Marking: En cedant
8GGG'L	2r	.
8EEE'	.	.
8GGG'	.	.
8EEE'J	.	.
=36	=36	=36
8GGG'L	2r	.
8EEE'	.	.
8GGG'	.	.
8EEE'J	.	.
=37	=37	=37
8GGG'L	4r	.
8EEE'	.	.
!Tempo Marking: Moqueur	!Tempo Marking: Moqueur	!Tempo Marking: Moqueur
8GGG'	(>8G'L 8B 8e-	p<
8EEE'J	[8F#~J [8B- [8d	.
=38	=38	=38
8GGG'L	8F#L] 8B-X] 8d]	[>
8FFFn'	8Fn' 8A 8d-	.
8FFF#X'	8E' 8A- 8c	.
8GGG'J	8G'J) 8Bn 8e-	]
=39	=39	=39
8AAA-'	[2D~ [2F# [2B-	.
*X8ba	*	*
(<16AAA-XLL	.	.
16AA-JJ	.	.
!Expression: m.d.	!	!
16A-LL	.	.
16A-	.	.
16A-	.	.
16a-JJ	.	.
=40	=40	=40
*^	*	*
8A-)	4ryy	4D] 4F#] 4B-X]	.
8r	.	.	.
.	.	(<16qqG/LL	<
.	.	16qqF#/JJ	.
4r	(<4BBB~ 4BB	(4Fn~) 4A 4c#	[>
=41	=41	=41	=41
8r	2AAA-) 2AA-	[2D) [2F# [2B-	.
(>16AAA-LL	.	.	.
16AA-JJ	.	.	]
!Expression: m.d.	!	!	!
16A-LL	.	.	.
16A-	.	.	.
16A-	.	.	.
16a-JJ	.	.	.
=42	=42	=42	=42
8A-')	4AAA- 4AA-	4D] 4F#] 4B-X]	.
8ryy	.	.	.
.	.	(<16qqG/LL	<
.	.	16qqF#/JJ	.
4ryy	(>4BBB~ 4BB	(4Fn~) 4A 4c#	[
*v	*v	*	*
=43	=43	=43
4BBB- 4BB-	4E) 4G# 4c	p
.	(<16qqA/LL	<
.	16qqG#/JJ	.
[4CC#~ [4C#	[4Gn~) [4B [4d#	[
=44	=44	=44
*^	*	*
*	*^	*	*
2CC#] 2C#]	4r)yy	4ryy	4G] 4B] 4d#X]	.
*	*	*	*clefG2	*
.	4B#	(<8G#\L	32r	.
.	.	.	(>32c#LLL	f<
.	.	.	32cc#	.
.	.	.	32cc#JJJ	.
.	.	8A\J)	8ccc#^^',)	[
*v	*v	*v	*	*
=45	=45	=45
!Tempo Marking: Mouvt	!Tempo Marking: Mouvt	!Tempo Marking: Mouvt
8r	8r	.
(>4F# 4A#	16c#'LL	p
.	16d'JJ	.
.	16f#'LL	.
.	16d'	.
[8G) [8B	16c#'	.
.	16d'JJ	.
=46	=46	=46
*	*^	*
8G] 8B]	16f#'LL	4.ryy	.
.	16d'JJ	.	.
(>8G#L 8B	16c#LL	.	<
.	16d#'	.	.
8C#)	16f#'	.	.
.	16d#'JJ	.	.
(>8CC#J	8g#	(>16c#LL 16cc#	[f<
.	.	16d#JJ 16dd#	.
*	*v	*v	*
=47	=47	=47
8FF#') 8C# 8A#	8c#') 8f# 8cc#	[
(>4F# 4A#	16c#'LL	p
.	16d'	.
.	16f#'	.
.	16d'JJ	.
[8G) [8B	16c#'LL	.
.	16d'JJ	.
=48	=48	=48
*	*^	*
8G] 8B]	16f#'LL	4.ryy	.
.	16d'JJ	.	.
(>8G#L 8B	16c#'LL	.	<
.	16d#	.	.
8C#)	16f#	.	.
.	16d#JJ	.	.
(>8CC#J	8g#	(>16c#LL 16cc#	[f<
.	.	16d#JJ 16dd#	.
*	*v	*v	*
=49	=49	=49
8FF#') 8C# 8A#	8c#') 8f# 8cc#	[
8r	(<16dLL	p
.	16eJJ	.
4r	16gLL)	.
.	16e'	.
.	16d'	.
.	16B'JJ	.
=50	=50	=50
4rEE	(16GLL	.
.	16E	.
.	16D	.
.	16EJJ	.
8rEE	8G'L)	.
8CC 8GG	8C~J 8E	.
=51	=51	=51
8r	8r	.
16AAA-'LL 16EE-	16c'LL 16e- 16a-	pp
16AA-'J	16A-'J	.
8AAA-' 8EE- 8AA-	8A-' 8c 8e- 8a-	.
8BBB-'J 8FFn 8BB-	8B-'J 8d 8fn 8b-	.
=52	=52	=52
8EE-'L 8BB- 8E-	8e-'L 8g 8b- 8ee-	.
8CC' 8GG 8C	8c' 8e- 8g 8cc	.
8AAA-' 8EE- 8AA-	8A-' 8c 8e- 8a-	.
8BBB-'J 8FFn 8BB-	8B-'J 8d 8fn 8b-	.
=53	=53	=53
2r	8r	.
.	(<16dLL	.
.	16enXJJ	.
.	16gLL)	.
.	16e'	.
.	16d'	.
.	16BnX'JJ	.
=54	=54	=54
4rEE	(16GLL	.
.	16E	.
.	16D	.
.	16EJJ	.
8rEE	8G'L)	.
8CC 8GG	8C~J 8E	.
=55	=55	=55
8r	8r	.
16AAA'LL 16EE	16c#'LL 16e 16a	pp<
16AA'J	16A'J	.
8AAA' 8EE 8AA	8A' 8c# 8e 8a	.
8BBB'J 8FF# 8BB	8B'J 8d# 8f# 8b	.
=56	=56	=56
8EE'L 8BB 8E	8e'L 8g# 8b 8ee	[pp>
8CC#' 8GG# 8C#	8c#' 8e 8g# 8cc#	.
8AAA' 8EE 8AA	8A' 8c# 8e 8a	.
8BBB'J 8FF# 8BB	8B'J 8d# 8f# 8b	.
=57	=57	=57
*^	*	*
8ryy	8GGG'L 8DD 8GGnX	8G'L 8B 8dnX 8gnX	[ppp
8EL	8EEE' 8BBB 8EE	8G#' 8B 8e	.
8C 8E 8GnX	8CCC' 8GGG 8CC	8c'	.
8DJ 8F# 8A	8DDD'J 8AAA 8DD	8d'J	.
*v	*v	*	*
=58	=58	=58
8r	2r	f
!Expression: (Quasi Tambouro)	!	!
24D'LL	.	.
24D'	.	.
24D'JJ	.	.
8C#' 8D	.	.
24D'LL	.	.
24D'	.	.
24D'JJ	.	.
=59	=59	=59
8C#~ 8D	2r	.
24D'LL	.	.
24D'	.	.
24D'JJ	.	.
16C#~ 16D	.	.
16D'	.	.
16C#~ 16D	.	.
16D'	.	.
=60	=60	=60
8C#~ 8D	2r	.
24D'LL	.	.
24D'	.	.
24D'JJ	.	.
8C#~ 8D	.	.
24D'LL	.	.
24D'	.	.
24D'JJ	.	.
=61	=61	=61
8C#~ 8D	2r	.
24D'LL	.	.
24D'	.	.
24D'JJ	.	.
16C#~ 16D	.	.
16D'	.	.
16C#~ 16D	.	.
16D'	.	.
=62	=62	=62
!	!	!Dynamic Expression: dim.
8C#~ 8D	2r	.
16D'LL	.	.
16D'JJ	.	.
8C#~ 8D	.	.
16D'LL	.	.
16D'JJ	.	.
=63	=63	=63
8C#~ 8D	4ryy	.
8D'	.	.
!	!Expression: expressif	!
(>8DL	(>8dL	p
8D-J 8E-	8d-J 8e-	.
=64	=64	=64l
8CL 8EnX	8cL 8enX	.
8E 8Fn	8e 8fn	.
8E- 8F#	8e- 8f#	.
8DJ 8G	8dJ 8g	.
=65	=65	=65
4AAA 4AA	4B 4c#X 4g 4b	>
4DD 4D	4A 4cn 4d 4f# 4a	.
=66	=66	=66
*	*^	*
2GGG) 2GG 2D	[2B) [2d	(>8A	]
.	.	4G	.
.	.	8F#	.
=67	=67	=67	=67
*	*v	*v	*
*^	*	*
2DDD) 2DD	4D) 4E	4B] 4d]	.
.	(8A'L	(<8a'L	.
.	8D'J	8d'J	.
=68	=68	=68	=68
*	*	*^	*
(<2AAA 2AA	4E)	4e~)	8r	<
.	.	.	4.A 4.e	.
.	(8B'L	8b'L	.	[
.	8D'J	8d'J	.	.
=69	=69	=69	=69	=69
2DDD) 2DD	4E)	4e~	8r	<
.	.	.	4.F# 4.c 4.d	.
.	8c'L	8cc'L	.	[
.	8D'J	8d'J	.	.
=70	=70	=70	=70	=70
*	*^	*	*	*
4E	2GGG 2GG	8rEE	(>4e	8r	f<
!	!	!Expression: (en dehors)	!	!	!
.	.	(>16D/LL	.	4.G 4.B 4.d	.
.	.	16E/JJ	.	.	.
4ryy	.	16G/LL	[4e) [4ee	.	[
.	.	16E/	.	.	.
.	.	16D/	.	.	.
.	.	16BB/JJ	.	.	.
*v	*v	*v	*	*	*
*	*v	*v	*
=71	=71	=71
16GGLL	4e] 4ee]	.
16EE	.	.
16DD	.	.
[16BBBJJ)	.	.
(>8BBBL] 8BB 8D	(>8dL	mf<
8BBB-J 8BB- 8E-	8d-J 8e-	.
=72	=72	=72
8AAAL 8AA 8E	8cL 8e	.
8EE 8E 8Fn	8e 8fn	.
8EE- 8E- 8F#	8e- 8f#	.
8DDJ) 8D 8G	8dJ 8g	.
=73	=73	=73
*^	*	*
4B 4c#	4CC# 4C#	4e# 4g# 4b	[
4F# 4cn	4DD 4D	4d) 4f#	.
=74	=74	=74	=74
*	*	*^	*
2A 2B	[2GGG~ [2GG	2fn 2a	8r	f
!	!	!	!Expression: (en dehors)	!
.	.	.	(<16dLL	.
.	.	.	16eJJ	.
.	.	.	16gLL	.
.	.	.	16e	.
.	.	.	16d	.
.	.	.	16BJJ	.
*v	*v	*	*	*
*	*v	*v	*
*	*clefF4	*
=75	=75	=75
4GGG] 4GG]	16GLL	.
.	16E	.
.	16D	.
.	16EJJ	.
8r	8G'L)	.
8CC'~ 8GG 8C	8E'~J 8G 8A	.
=76	=76	=76
.	(<16qqA/LL	<
.	16qqA-/JJ	.
(>4AAA 4AA	4C#^^) 4G 4B	[f
.	(<16qqB-/LL	<
.	16qqAn/JJ	.
[4DD) [4D	[4A-^^) [4c [4e	[f<
=77	=77	=77
*^	*	*
*	*^	*	*
2DD] 2D]	4ryy	4ryy	(>4A-] 4c] 4e]	.
*	*	*	*clefG2	*
.	4c#	8A\L	32r	[
.	.	.	(<32dLLL	.
.	.	.	32dd	.
.	.	.	32ddJJJ)	.
.	.	8A#'\J)	8ddd',	.
*v	*v	*v	*	*
=78;	=78;	=78;
*	*clefF4	*
!Tempo Marking: Tempo 1	!Tempo Marking: Tempo 1	!Tempo Marking: Tempo 1
8GGG' 8GG	8r	p
.	(<16qqB/LL	.
.	16qqA/	.
.	16qqG/JJ	.
8r	16D'LL)	.
.	16E'JJ	.
.	(<16qqd/LL	.
.	16qqc/	.
.	16qqB-/JJ	.
8r	8F#~)	.
8DD' 8D	8r	.
=79	=79	=79
8GGG' 8GG	8r	.
.	(<16qqBnX/LL	.
.	16qqA/	.
.	16qqG/JJ	.
8r	16D'LL)	.
.	16E'JJ	.
.	(<16qqd/LL	<
.	16qqc/	.
.	16qqB-/JJ	.
8r	16F#LL)	[
.	16F#J	.
8DD' 8D	8F#J	.
=80	=80	=80
8GGG' 8GG	8r	.
.	(<16qqBnX/LL	p<
.	16qqA/	.
.	16qqG/JJ	.
8r	16D'LL)	.
.	16E'JJ	.
.	(<16qqd/LL	.
.	16qqc/	.
.	16qqB-/JJ	.
8r	16F#'LL)	[
.	16F#'	.
8DD 8D	16F#'	>
.	16E'JJ	.
=81	=81	=81
.	(<16qqBnX/LL	]
.	16qqA/	.
.	16qqG/JJ	.
2r	16D'LL)	.
.	16D'	.
.	16D'	.
.	16BB'JJ	.
.	8AA'	.
.	24DD'LL	pp
.	24DD'	.
.	24DD'JJ	.
=82	=82	=82
8CC#'~L 8DD	2r	.
24DD'L	.	.
24DD'	.	.
24DD'JJ	.	.
8CC#'~L 8DD	.	.
16DD'L	.	.
16DD'JJ	.	.
=83	=83	=83
16CC#'~LL 16DD	2r	.
16DD'	.	.
16CC#'~ 16DD	.	.
16DD'JJ	.	.
8CC#'~L 8DD	.	.
24DD'L	.	.
24DD'	.	.
24DD'JJ	.	.
=84	=84	=84
8CC#'~L 8DD	2r	.
24DD'L	.	.
24DD'	.	.
24DD'JJ	.	.
8CC#'~L 8DD	.	.
16DD'L	.	.
16DD'JJ	.	.
=85	=85	=85
8CC#'~ 8DD	8ryy	.
*	*clefG2	*
!Tempo Marking: Mouvt (plus allant)	!Tempo Marking: Mouvt (plus allant)	!Tempo Marking: Mouvt (plus allant)
8ryy	16DLL 16E	f
.	16AJJ 16B	.
4ryy	16dLL 16e	.
.	16A 16B	.
.	16D 16E	.
.	16AJJ 16B	.
=86	=86	=86
2r	16dLL 16e	.
.	16B 16c	.
.	16D 16E	.
.	16BJJ 16c	.
.	8d 8e	<
!	!Expression: m.g.	!
.	(8qc#	.
.	[8B [8d [8e [8g	[sff
=87	=87	=87
!Tempo Marking: Serrez	!Tempo Marking: Serrez	!Tempo Marking: Serrez
2r	16BLL] 16d] 16e] 16g]	.
.	16e'	f<
.	16d'	.
.	16e'JJ	.
.	16g'LL	.
.	16e'	.
.	16d'	.
.	16B'JJ	.
=88	=88	=88
*	*clefF4	*
4r	16G'LL	.
.	16E'	.
.	16D'	.
.	16E'JJ	.
8r	8G'Z	[
!Tempo Marking: Sec et retenu	!Tempo Marking: Sec et retenu	!Tempo Marking: Sec et retenu
8CC'^^ 8GG	8C'^^ 8E	ff
=89	=89	=89
8GGG'^^ 8DD 8GG	8BB'^^ 8D 8G	.
8r	8r	.
4r	4r	.
==	==	==
*-	*-	*-
!!!system-decoration: {(s1,s2)}
!!!RDF**kern: > = above
!!!RDF**kern: < = below
!!!RDF**kern: Z = caesura
